X:7
T:Devaney's Goat
S:Sean Gavin
R:reel
M:4/4
L:1/8
K:D
FE | DFAB AFAB | defe dBAF | DFAF BFAF | E2 DF EGFE |
A3B AFAB | defe dBAF | efdB AF3 | AFEG FGG2 :|
|: faab afdf | a2fd edBd | ABde fdd2 | edfd fdBd |
ABde fdd2 | edfd edBd | ABdB Af3 | AFEG FGG2 :|


